dist/img/svg/yellow star.svg

<svg width="16" height="16" viewBox="0 0 16 16" fill="none" xmlns="http://www.w3.org/2000/svg">
<g clip-path="url(#clip0_412_59)">
<path d="M15.3039 5.58184L10.8978 5.16521C10.62 5.13996 10.38 4.9632 10.2665 4.69807L8.68836 0.872617C8.43585 0.241354 7.53933 0.241354 7.28683 0.872617L5.7213 4.69807C5.62029 4.9632 5.36779 5.13996 5.09003 5.16521L0.683816 5.58184C0.0273019 5.64497 -0.237829 6.46561 0.254557 6.9075L3.575 9.82393C3.78963 10.0133 3.87801 10.2911 3.81488 10.5688L2.81749 14.6593C2.66598 15.3033 3.36037 15.8334 3.94113 15.4927L7.61509 13.3336C7.85497 13.1948 8.14535 13.1948 8.38523 13.3336L12.0593 15.4927C12.6401 15.8334 13.3345 15.3159 13.1828 14.6593L12.1981 10.5688C12.1349 10.2911 12.2233 10.0133 12.4379 9.82393L15.7584 6.9075C16.2381 6.46561 15.9604 5.64497 15.3039 5.58184Z" fill="#FFC22B"/>
</g>
<defs>
<clipPath id="clip0_412_59">
<rect width="15.9999" height="16" fill="white"/>
</clipPath>
</defs>
</svg>

<svg width="16" height="16" fill="none" xmlns="http://www.w3.org/2000/svg"><g clip-path="url(#clip0_412_59)"><path d="M15.304 5.582l-4.406-.417a.762.762 0 01-.631-.467L8.688.873C8.436.24 7.54.24 7.287.873L5.72 4.698a.746.746 0 01-.631.467l-4.406.417c-.657.063-.922.884-.43 1.325l3.321 2.917c.215.19.303.467.24.745l-.998 4.09c-.151.644.543 1.174 1.124.834l3.674-2.16a.764.764 0 01.77 0l3.674 2.16a.76.76 0 001.124-.834l-.985-4.09a.755.755 0 01.24-.745l3.32-2.917c.48-.441.202-1.262-.454-1.325z" fill="#FFC22B"/></g><defs><clipPath id="clip0_412_59"><path fill="#fff" d="M0 0h16v16H0z"/></clipPath></defs></svg>
